src/app/assets/water.svg

<?xml version="1.0" encoding="UTF-8" standalone="no"?>
<svg
   xml:space="preserve"
   width="250.28"
   height="249.869"
   viewBox="0 0 30.672 30.621"
   version="1.1"
   id="svg213"
   sodipodi:docname="water.svg"
   inkscape:version="1.2 (dc2aeda, 2022-05-15)"
   xmlns:inkscape="http://www.inkscape.org/namespaces/inkscape"
   xmlns:sodipodi="http://sodipodi.sourceforge.net/DTD/sodipodi-0.dtd"
   xmlns="http://www.w3.org/2000/svg"
   xmlns:svg="http://www.w3.org/2000/svg"><defs
     id="defs217" /><sodipodi:namedview
     id="namedview215"
     pagecolor="#505050"
     bordercolor="#eeeeee"
     borderopacity="1"
     inkscape:showpageshadow="0"
     inkscape:pageopacity="0"
     inkscape:pagecheckerboard="0"
     inkscape:deskcolor="#505050"
     showgrid="false"
     inkscape:zoom="1.0863538"
     inkscape:cx="-44.184499"
     inkscape:cy="155.106"
     inkscape:window-width="1440"
     inkscape:window-height="900"
     inkscape:window-x="0"
     inkscape:window-y="0"
     inkscape:window-maximized="0"
     inkscape:current-layer="svg213" /><path
     id="path379"
     style="fill:#000000;fill-opacity:1;stroke-width:0.00834677;stroke-linecap:round;stroke-linejoin:round;stroke-miterlimit:500"
     d="M 15.336077 0.036066153 A 15.274412 15.274412 0 0 0 0.061514729 15.310389 A 15.274412 15.274412 0 0 0 15.336077 30.584951 A 15.274412 15.274412 0 0 0 30.610399 15.310389 A 15.274412 15.274412 0 0 0 15.336077 0.036066153 z M 15.318364 5.4326073 C 15.318364 5.4326073 18.216249 8.8708787 19.485808 10.721917 C 21.149146 13.147091 22.307901 15.759391 22.218067 18.556069 C 22.126182 21.416595 19.610467 25.18286 15.318364 25.21426 C 11.026263 25.24566 8.7613117 21.691676 8.5529409 18.556069 C 8.349237 15.490688 9.6527154 13.359073 11.312008 10.721917 C 12.489883 8.8498891 15.318364 5.4326073 15.318364 5.4326073 z M 12.245979 16.246992 C 12.199268 16.249181 12.137766 16.286362 12.057126 16.362123 C 11.505737 16.880161 11.066883 17.910688 11.057332 19.06159 C 11.057379 21.315593 12.884604 23.142818 15.138607 23.142865 C 16.251042 23.1425 17.26077 22.69668 17.997486 21.972889 C 18.365844 21.610992 18.665904 21.179697 18.876405 20.699749 C 18.981655 20.459775 19.064669 20.20765 19.122464 19.946014 C 19.234191 19.249334 19.042829 19.419239 18.605692 19.766736 C 18.380186 19.951188 18.134876 20.108505 17.875175 20.236594 C 17.355773 20.492769 16.778319 20.63126 16.183879 20.631532 C 15.126936 20.631519 13.911442 20.036467 13.296995 19.303341 C 12.674456 18.560561 12.36882 17.561393 12.381455 16.950462 C 12.39073 16.501811 12.375121 16.240942 12.245979 16.246992 z " /></svg>

<svg xmlns="http://www.w3.org/2000/svg" xml:space="preserve" width="250.28" height="249.869" viewBox="0 0 30.672 30.621"><path d="M15.336.036A15.274 15.274 0 0 0 .062 15.31a15.274 15.274 0 0 0 15.274 15.275A15.274 15.274 0 0 0 30.61 15.31 15.274 15.274 0 0 0 15.336.036m-.018 5.397s2.898 3.438 4.168 5.289c1.663 2.425 2.822 5.037 2.732 7.834-.092 2.86-2.608 6.627-6.9 6.658s-6.557-3.522-6.765-6.658c-.204-3.065 1.1-5.197 2.759-7.834 1.178-1.872 4.006-5.29 4.006-5.29m-3.072 10.814q-.069.003-.189.115c-.551.518-.99 1.549-1 2.7a4.081 4.081 0 0 0 8.065.884c.112-.697-.08-.527-.516-.18a3.83 3.83 0 0 1-2.422.866c-1.057 0-2.273-.596-2.887-1.329-.623-.742-.928-1.742-.916-2.353.01-.448-.006-.71-.135-.703" style="fill:#000;fill-opacity:1;stroke-width:.00834677;stroke-linecap:round;stroke-linejoin:round;stroke-miterlimit:500"/></svg>
